public/logos/OQ.svg

<?xml version="1.0" encoding="UTF-8"?>
<svg xmlns="http://www.w3.org/2000/svg" xmlns:xlink="http://www.w3.org/1999/xlink" width="176pt" height="30.92pt" viewBox="0 0 176 30.92" version="1.1">
<defs>
<clipPath id="clip1">
  <path d="M 0 9 L 37 9 L 37 30.921875 L 0 30.921875 Z M 0 9 "/>
</clipPath>
</defs>
<g id="surface1">
<g clip-path="url(#clip1)" clip-rule="nonzero">
<path style=" stroke:none;fill-rule:nonzero;fill:rgb(30.865479%,65.483093%,88.386536%);fill-opacity:1;" d="M 0 23.585938 C 1.144531 24.386719 1.988281 25.109375 2.945312 25.625 C 7.285156 27.976562 13.3125 27.15625 17.058594 23.554688 C 18.609375 22.0625 19.9375 20.308594 21.171875 18.539062 C 22.890625 16.078125 24.375 13.453125 26.8125 11.589844 C 28.214844 10.515625 29.769531 9.851562 31.578125 9.867188 C 34.546875 9.894531 36.421875 12.007812 36.171875 14.988281 C 35.941406 17.695312 34.710938 19.953125 32.976562 21.914062 C 27.769531 27.816406 21.210938 30.914062 13.3125 30.921875 C 10.109375 30.921875 7.003906 30.234375 4.230469 28.5 C 2.394531 27.355469 0.910156 25.875 0 23.585938 "/>
</g>
<path style=" stroke:none;fill-rule:nonzero;fill:rgb(87.283325%,11.486816%,14.854431%);fill-opacity:1;" d="M 43.121094 7.203125 C 41.667969 5.753906 39.984375 4.664062 37.976562 4.304688 C 33.546875 3.515625 29.484375 4.40625 26.242188 7.644531 C 24.648438 9.234375 23.308594 11.113281 22.015625 12.972656 C 20.4375 15.238281 18.992188 17.597656 16.78125 19.332031 C 15.296875 20.496094 13.648438 21.132812 11.722656 21.101562 C 9.011719 21.054688 7.0625 18.882812 7.378906 15.84375 C 7.742188 12.351562 9.699219 9.699219 12.121094 7.359375 C 16.210938 3.410156 21.113281 0.984375 26.738281 0.238281 C 31.304688 -0.371094 35.804688 0.078125 39.722656 2.78125 C 40.992188 3.65625 41.933594 5.007812 42.992188 6.171875 C 43.195312 6.394531 43.253906 6.75 43.382812 7.042969 C 43.292969 7.097656 43.207031 7.148438 43.121094 7.203125 "/>
<path style=" stroke:none;fill-rule:nonzero;fill:rgb(9.680176%,15.499878%,27.105713%);fill-opacity:1;" d="M 57.226562 20.789062 C 56.792969 21.003906 55.933594 21.21875 54.828125 21.21875 C 52.269531 21.21875 50.34375 19.605469 50.34375 16.628906 C 50.34375 13.789062 52.269531 11.863281 55.085938 11.863281 C 56.214844 11.863281 56.929688 12.105469 57.238281 12.265625 L 56.957031 13.222656 C 56.511719 13.007812 55.878906 12.847656 55.125 12.847656 C 52.996094 12.847656 51.585938 14.207031 51.585938 16.589844 C 51.585938 18.808594 52.863281 20.238281 55.070312 20.238281 C 55.785156 20.238281 56.511719 20.089844 56.984375 19.859375 L 57.226562 20.789062 "/>
<path style=" stroke:none;fill-rule:nonzero;fill:rgb(9.680176%,15.499878%,27.105713%);fill-opacity:1;" d="M 59.863281 12.011719 L 59.863281 15.808594 L 64.253906 15.808594 L 64.253906 12.011719 L 65.4375 12.011719 L 65.4375 21.085938 L 64.253906 21.085938 L 64.253906 16.832031 L 59.863281 16.832031 L 59.863281 21.085938 L 58.691406 21.085938 L 58.691406 12.011719 L 59.863281 12.011719 "/>
<path style=" stroke:none;fill-rule:nonzero;fill:rgb(9.680176%,15.499878%,27.105713%);fill-opacity:1;" d="M 68.183594 16.601562 C 68.183594 18.542969 69.234375 20.277344 71.078125 20.277344 C 72.9375 20.277344 73.988281 18.566406 73.988281 16.507812 C 73.988281 14.703125 73.042969 12.820312 71.09375 12.820312 C 69.15625 12.820312 68.183594 14.609375 68.183594 16.601562 Z M 75.226562 16.453125 C 75.226562 19.578125 73.328125 21.234375 71.011719 21.234375 C 68.617188 21.234375 66.933594 19.375 66.933594 16.628906 C 66.933594 13.746094 68.722656 11.863281 71.148438 11.863281 C 73.625 11.863281 75.226562 13.761719 75.226562 16.453125 "/>
<path style=" stroke:none;fill-rule:nonzero;fill:rgb(9.680176%,15.499878%,27.105713%);fill-opacity:1;" d="M 76.746094 21.085938 L 76.746094 12.011719 L 78.027344 12.011719 L 80.933594 16.601562 C 81.609375 17.664062 82.132812 18.621094 82.5625 19.550781 L 82.589844 19.539062 C 82.484375 18.324219 82.457031 17.222656 82.457031 15.808594 L 82.457031 12.011719 L 83.558594 12.011719 L 83.558594 21.085938 L 82.375 21.085938 L 79.492188 16.480469 C 78.859375 15.472656 78.253906 14.433594 77.796875 13.453125 L 77.757812 13.464844 C 77.824219 14.609375 77.851562 15.699219 77.851562 17.207031 L 77.851562 21.085938 L 76.746094 21.085938 "/>
<path style=" stroke:none;fill-rule:nonzero;fill:rgb(9.680176%,15.499878%,27.105713%);fill-opacity:1;" d="M 92.511719 20.683594 C 91.988281 20.871094 90.953125 21.179688 89.726562 21.179688 C 88.351562 21.179688 87.222656 20.828125 86.332031 19.980469 C 85.550781 19.226562 85.066406 18.015625 85.066406 16.601562 C 85.082031 13.894531 86.941406 11.917969 89.980469 11.917969 C 91.03125 11.917969 91.851562 12.144531 92.242188 12.335938 L 91.960938 13.289062 C 91.476562 13.074219 90.871094 12.898438 89.957031 12.898438 C 87.746094 12.898438 86.304688 14.273438 86.304688 16.546875 C 86.304688 18.851562 87.695312 20.210938 89.808594 20.210938 C 90.574219 20.210938 91.097656 20.101562 91.367188 19.96875 L 91.367188 17.261719 L 89.523438 17.261719 L 89.523438 16.320312 L 92.511719 16.320312 L 92.511719 20.683594 "/>
<path style=" stroke:none;fill-rule:nonzero;fill:rgb(9.680176%,15.499878%,27.105713%);fill-opacity:1;" d="M 100.820312 16.507812 C 100.820312 14.691406 99.878906 12.820312 97.953125 12.820312 C 95.972656 12.820312 95.003906 14.648438 95.019531 16.617188 C 95.003906 18.542969 96.066406 20.277344 97.898438 20.277344 C 99.769531 20.277344 100.820312 18.582031 100.820312 16.507812 Z M 101.789062 22.417969 C 100.5625 22.09375 99.367188 21.730469 98.316406 21.367188 C 98.128906 21.300781 97.9375 21.234375 97.765625 21.234375 C 95.609375 21.152344 93.765625 19.5625 93.765625 16.644531 C 93.765625 13.734375 95.542969 11.863281 97.992188 11.863281 C 100.457031 11.863281 102.058594 13.773438 102.058594 16.453125 C 102.058594 18.785156 100.980469 20.277344 99.472656 20.804688 L 99.472656 20.855469 C 100.375 21.085938 101.359375 21.300781 102.125 21.4375 L 101.789062 22.417969 "/>
<path style=" stroke:none;fill-rule:nonzero;fill:rgb(9.680176%,15.499878%,27.105713%);fill-opacity:1;" d="M 104.75 12.011719 L 104.75 21.085938 L 103.578125 21.085938 L 103.578125 12.011719 L 104.75 12.011719 "/>
<path style=" stroke:none;fill-rule:nonzero;fill:rgb(9.680176%,15.499878%,27.105713%);fill-opacity:1;" d="M 106.796875 21.085938 L 106.796875 12.011719 L 108.078125 12.011719 L 110.984375 16.601562 C 111.65625 17.664062 112.183594 18.621094 112.613281 19.550781 L 112.640625 19.539062 C 112.53125 18.324219 112.507812 17.222656 112.507812 15.808594 L 112.507812 12.011719 L 113.609375 12.011719 L 113.609375 21.085938 L 112.425781 21.085938 L 109.546875 16.480469 C 108.910156 15.472656 108.304688 14.433594 107.847656 13.453125 L 107.808594 13.464844 C 107.875 14.609375 107.902344 15.699219 107.902344 17.207031 L 107.902344 21.085938 L 106.796875 21.085938 "/>
<path style=" stroke:none;fill-rule:nonzero;fill:rgb(9.680176%,15.499878%,27.105713%);fill-opacity:1;" d="M 122.5625 20.683594 C 122.039062 20.871094 121.003906 21.179688 119.777344 21.179688 C 118.402344 21.179688 117.273438 20.828125 116.382812 19.980469 C 115.601562 19.226562 115.117188 18.015625 115.117188 16.601562 C 115.132812 13.894531 116.988281 11.917969 120.03125 11.917969 C 121.082031 11.917969 121.902344 12.144531 122.292969 12.335938 L 122.011719 13.289062 C 121.527344 13.074219 120.921875 12.898438 120.007812 12.898438 C 117.796875 12.898438 116.355469 14.273438 116.355469 16.546875 C 116.355469 18.851562 117.742188 20.210938 119.859375 20.210938 C 120.625 20.210938 121.148438 20.101562 121.417969 19.96875 L 121.417969 17.261719 L 119.574219 17.261719 L 119.574219 16.320312 L 122.5625 16.320312 L 122.5625 20.683594 "/>
<path style=" stroke:none;fill-rule:nonzero;fill:rgb(9.680176%,15.499878%,27.105713%);fill-opacity:1;" d="M 131.652344 17.316406 L 130.761719 14.703125 C 130.5625 14.113281 130.425781 13.574219 130.292969 13.046875 L 130.265625 13.046875 C 130.128906 13.585938 129.980469 14.136719 129.808594 14.691406 L 128.917969 17.316406 Z M 128.675781 18.230469 L 127.734375 21.085938 L 126.523438 21.085938 L 129.605469 12.011719 L 131.019531 12.011719 L 134.113281 21.085938 L 132.863281 21.085938 L 131.894531 18.230469 L 128.675781 18.230469 "/>
<path style=" stroke:none;fill-rule:nonzero;fill:rgb(9.680176%,15.499878%,27.105713%);fill-opacity:1;" d="M 136.621094 12.011719 L 136.621094 21.085938 L 135.449219 21.085938 L 135.449219 12.011719 L 136.621094 12.011719 "/>
<path style=" stroke:none;fill-rule:nonzero;fill:rgb(9.680176%,15.499878%,27.105713%);fill-opacity:1;" d="M 139.835938 16.265625 L 141.035156 16.265625 C 142.289062 16.265625 143.082031 15.578125 143.082031 14.542969 C 143.082031 13.371094 142.234375 12.859375 140.996094 12.847656 C 140.429688 12.847656 140.027344 12.898438 139.835938 12.953125 Z M 138.664062 12.132812 C 139.257812 12.011719 140.105469 11.945312 140.914062 11.945312 C 142.167969 11.945312 142.972656 12.171875 143.539062 12.683594 C 143.996094 13.089844 144.253906 13.707031 144.253906 14.40625 C 144.253906 15.605469 143.5 16.402344 142.542969 16.722656 L 142.542969 16.765625 C 143.242188 17.007812 143.660156 17.652344 143.875 18.59375 C 144.171875 19.859375 144.386719 20.734375 144.578125 21.085938 L 143.363281 21.085938 C 143.21875 20.828125 143.015625 20.050781 142.757812 18.917969 C 142.488281 17.664062 142.003906 17.195312 140.941406 17.152344 L 139.835938 17.152344 L 139.835938 21.085938 L 138.664062 21.085938 L 138.664062 12.132812 "/>
<path style=" stroke:none;fill-rule:nonzero;fill:rgb(9.680176%,15.499878%,27.105713%);fill-opacity:1;" d="M 145.910156 12.011719 L 147.082031 12.011719 L 147.082031 20.101562 L 150.957031 20.101562 L 150.957031 21.085938 L 145.910156 21.085938 L 145.910156 12.011719 "/>
<path style=" stroke:none;fill-rule:nonzero;fill:rgb(9.680176%,15.499878%,27.105713%);fill-opacity:1;" d="M 153.433594 12.011719 L 153.433594 21.085938 L 152.265625 21.085938 L 152.265625 12.011719 L 153.433594 12.011719 "/>
<path style=" stroke:none;fill-rule:nonzero;fill:rgb(9.680176%,15.499878%,27.105713%);fill-opacity:1;" d="M 155.480469 21.085938 L 155.480469 12.011719 L 156.761719 12.011719 L 159.667969 16.601562 C 160.34375 17.664062 160.867188 18.621094 161.296875 19.550781 L 161.324219 19.539062 C 161.21875 18.324219 161.191406 17.222656 161.191406 15.808594 L 161.191406 12.011719 L 162.292969 12.011719 L 162.292969 21.085938 L 161.109375 21.085938 L 158.226562 16.480469 C 157.597656 15.472656 156.988281 14.433594 156.53125 13.453125 L 156.492188 13.464844 C 156.558594 14.609375 156.585938 15.699219 156.585938 17.207031 L 156.585938 21.085938 L 155.480469 21.085938 "/>
<path style=" stroke:none;fill-rule:nonzero;fill:rgb(9.680176%,15.499878%,27.105713%);fill-opacity:1;" d="M 169.039062 16.832031 L 165.511719 16.832031 L 165.511719 20.101562 L 169.441406 20.101562 L 169.441406 21.085938 L 164.339844 21.085938 L 164.339844 12.011719 L 169.242188 12.011719 L 169.242188 12.992188 L 165.511719 12.992188 L 165.511719 15.863281 L 169.039062 15.863281 L 169.039062 16.832031 "/>
<path style=" stroke:none;fill-rule:nonzero;fill:rgb(9.680176%,15.499878%,27.105713%);fill-opacity:1;" d="M 170.804688 19.660156 C 171.328125 19.980469 172.09375 20.25 172.902344 20.25 C 174.101562 20.25 174.800781 19.617188 174.800781 18.703125 C 174.800781 17.855469 174.316406 17.371094 173.09375 16.898438 C 171.609375 16.375 170.695312 15.605469 170.695312 14.328125 C 170.695312 12.914062 171.867188 11.863281 173.628906 11.863281 C 174.558594 11.863281 175.234375 12.078125 175.636719 12.308594 L 175.3125 13.261719 C 175.015625 13.101562 174.410156 12.832031 173.589844 12.832031 C 172.351562 12.832031 171.878906 13.574219 171.878906 14.191406 C 171.878906 15.039062 172.433594 15.457031 173.683594 15.941406 C 175.21875 16.535156 176 17.277344 176 18.609375 C 176 20.007812 174.964844 21.21875 172.824219 21.21875 C 171.945312 21.21875 170.992188 20.964844 170.507812 20.640625 L 170.804688 19.660156 "/>
</g>
</svg>

<svg xmlns="http://www.w3.org/2000/svg" width="176pt" height="41.227" viewBox="0 0 176 30.92"><defs><clipPath id="a"><path d="M0 9h37v21.922H0Zm0 0"/></clipPath></defs><g clip-path="url(#a)"><path d="M0 23.586c1.145.8 1.988 1.523 2.945 2.039 4.34 2.352 10.368 1.531 14.114-2.07 1.55-1.492 2.878-3.246 4.113-5.016 1.719-2.46 3.203-5.086 5.64-6.95 1.403-1.073 2.958-1.737 4.766-1.722 2.969.028 4.844 2.14 4.594 5.121-.23 2.707-1.461 4.965-3.195 6.926-5.207 5.902-11.766 9-19.664 9.008-3.204 0-6.31-.688-9.083-2.422C2.395 27.355.91 25.875 0 23.586" style="stroke:none;fill-rule:nonzero;fill:#4fa7e1;fill-opacity:1"/></g><path d="M43.121 7.203c-1.453-1.45-3.137-2.539-5.144-2.898-4.43-.79-8.493.101-11.735 3.34-1.594 1.59-2.933 3.468-4.226 5.328-1.578 2.265-3.024 4.625-5.235 6.359-1.484 1.164-3.133 1.8-5.058 1.77-2.711-.047-4.66-2.22-4.344-5.258.363-3.492 2.32-6.145 4.742-8.485C16.211 3.41 21.113.984 26.738.24c4.567-.61 9.067-.16 12.985 2.542 1.27.875 2.21 2.227 3.27 3.39.202.224.26.579.39.872-.09.055-.176.105-.262.16" style="stroke:none;fill-rule:nonzero;fill:#df1d26;fill-opacity:1"/><path d="M57.227 20.79c-.434.214-1.293.429-2.399.429-2.558 0-4.484-1.614-4.484-4.59 0-2.84 1.926-4.766 4.742-4.766 1.129 0 1.844.242 2.152.403l-.281.957c-.445-.215-1.078-.375-1.832-.375-2.129 0-3.54 1.359-3.54 3.742 0 2.219 1.278 3.648 3.485 3.648.715 0 1.442-.148 1.914-.379zM59.863 12.012v3.797h4.39v-3.797h1.185v9.074h-1.184v-4.254h-4.39v4.254H58.69v-9.074zM68.184 16.602c0 1.941 1.05 3.675 2.894 3.675 1.86 0 2.91-1.71 2.91-3.77 0-1.804-.945-3.687-2.894-3.687-1.938 0-2.91 1.79-2.91 3.782m7.043-.149c0 3.125-1.899 4.781-4.215 4.781-2.395 0-4.078-1.859-4.078-4.605 0-2.883 1.789-4.766 4.214-4.766 2.477 0 4.079 1.899 4.079 4.59M76.746 21.086v-9.074h1.281l2.907 4.59c.675 1.062 1.199 2.02 1.629 2.949l.027-.012c-.106-1.215-.133-2.316-.133-3.73v-3.797h1.102v9.074h-1.184l-2.883-4.606c-.633-1.007-1.238-2.046-1.695-3.027l-.04.012c.067 1.144.095 2.234.095 3.742v3.879zM92.512 20.684a8.5 8.5 0 0 1-2.785.496c-1.375 0-2.504-.352-3.395-1.2-.781-.753-1.266-1.964-1.266-3.378.016-2.707 1.875-4.684 4.914-4.684 1.051 0 1.872.227 2.262.418l-.281.953c-.484-.215-1.09-.39-2.004-.39-2.21 0-3.652 1.374-3.652 3.648 0 2.305 1.39 3.664 3.504 3.664.765 0 1.289-.11 1.558-.242v-2.707h-1.844v-.942h2.989zM100.82 16.508c0-1.817-.941-3.688-2.867-3.688-1.98 0-2.95 1.828-2.933 3.797-.016 1.926 1.046 3.66 2.878 3.66 1.872 0 2.922-1.695 2.922-3.77m.97 5.91a50 50 0 0 1-3.474-1.05c-.187-.067-.379-.134-.55-.134-2.157-.082-4-1.672-4-4.59 0-2.91 1.777-4.78 4.226-4.78 2.465 0 4.067 1.91 4.067 4.59 0 2.331-1.079 3.823-2.586 4.35v.051c.902.23 1.886.446 2.652.582zM104.75 12.012v9.074h-1.172v-9.074zM106.797 21.086v-9.074h1.281l2.906 4.59c.672 1.062 1.2 2.02 1.63 2.949l.027-.012c-.11-1.215-.133-2.316-.133-3.73v-3.797h1.101v9.074h-1.183l-2.88-4.606c-.636-1.007-1.241-2.046-1.698-3.027l-.04.012a62 62 0 0 1 .094 3.742v3.879zM122.563 20.684a8.5 8.5 0 0 1-2.786.496c-1.375 0-2.504-.352-3.394-1.2-.781-.753-1.266-1.964-1.266-3.378.016-2.707 1.871-4.684 4.914-4.684 1.051 0 1.871.227 2.262.418l-.281.953c-.485-.215-1.09-.39-2.004-.39-2.211 0-3.653 1.374-3.653 3.648 0 2.305 1.387 3.664 3.504 3.664.766 0 1.29-.11 1.559-.242v-2.707h-1.844v-.942h2.989zM131.652 17.316l-.89-2.613c-.2-.59-.336-1.129-.469-1.656h-.027c-.137.539-.286 1.09-.457 1.644l-.891 2.625Zm-2.976.914-.942 2.856h-1.21l3.081-9.074h1.415l3.093 9.074h-1.25l-.968-2.856zM136.621 12.012v9.074h-1.172v-9.074zM139.836 16.266h1.2c1.253 0 2.046-.688 2.046-1.723 0-1.172-.848-1.684-2.086-1.695-.566 0-.969.05-1.16.105Zm-1.172-4.133c.594-.121 1.441-.188 2.25-.188 1.254 0 2.059.227 2.625.739.457.406.715 1.023.715 1.722 0 1.2-.754 1.996-1.711 2.317v.043c.7.242 1.117.886 1.332 1.828.297 1.265.512 2.14.703 2.492h-1.215c-.144-.258-.347-1.035-.605-2.168-.27-1.254-.754-1.723-1.817-1.766h-1.105v3.934h-1.172zM145.91 12.012h1.172v8.09h3.875v.984h-5.047zM153.434 12.012v9.074h-1.168v-9.074zM155.48 21.086v-9.074h1.282l2.906 4.59c.676 1.062 1.2 2.02 1.629 2.949l.027-.012c-.105-1.215-.133-2.316-.133-3.73v-3.797h1.102v9.074h-1.184l-2.882-4.606c-.63-1.007-1.239-2.046-1.696-3.027l-.039.012a62 62 0 0 1 .094 3.742v3.879zM169.04 16.832h-3.528v3.27h3.93v.984h-5.102v-9.074h4.902v.98h-3.73v2.871h3.527zM170.805 19.66c.523.32 1.289.59 2.097.59 1.2 0 1.899-.633 1.899-1.547 0-.848-.485-1.332-1.707-1.805-1.485-.523-2.399-1.293-2.399-2.57 0-1.414 1.172-2.465 2.934-2.465.93 0 1.605.215 2.008.446l-.325.953a3.64 3.64 0 0 0-1.722-.43c-1.238 0-1.711.742-1.711 1.36 0 .847.555 1.265 1.805 1.75 1.535.593 2.316 1.335 2.316 2.667 0 1.399-1.035 2.61-3.176 2.61-.879 0-1.832-.254-2.316-.578z" style="stroke:none;fill-rule:nonzero;fill:#192845;fill-opacity:1"/></svg>
